src/images/favicon.svg

<svg width="12" height="12" viewBox="0 0 12 12" fill="none" xmlns="http://www.w3.org/2000/svg">
<path d="M11.8828 0.625V2L10.6641 2.23438V12H8.39062L3.79688 4.34375L3.75 4.35156V10.3984L4.96875 10.6328V12H0.257812V10.6328L1.46875 10.3984V2.23438L0.257812 2V0.625H1.46875H3.75L8.34375 8.28125L8.39062 8.27344V2.23438L7.17188 2V0.625H10.6641H11.8828Z" fill="white"/>
</svg>

<svg width="12" height="12" fill="none" xmlns="http://www.w3.org/2000/svg"><path d="M11.883.625V2l-1.219.234V12H8.391L3.797 4.344l-.047.008v6.046l1.219.235V12H.258v-1.367l1.21-.235V2.234L.259 2V.625H3.75l4.594 7.656.047-.008V2.234L7.17 2V.625h4.712z" fill="#fff"/></svg>
